X: 5
T: The Glen Of Aherlow
R: reel
M: 4/4
L: 1/8
K: Edor
|: B2AF BFAF | ~E3F EDB,D | B2AF BFAF | DFAF FE~E2 |
B2AF BFAF | ~E3F EDB,A, | B,E~E2 B,EGB | dBAF GE~E2 :|
|: eB~B2 efge | fdd2 Adfd | eB~B2 egfe | dBAF GE~E2 |
eB~B2 egfe | fdd2 Adfd | ~B3d (3efg fe | dBAF GE~E2 :|


Tune 496	Setting 25455

